X:1
T:Mache dich auf, werde Licht!
T:Nach Christian David Friedrich Palmer
T:Mache dich auf, werde Licht!
T:CPDL   —   Creative Commons Attribution Non Commercial 3.0
T:CPDL   —   Creative Commons Attribution Non Commercial 3.0
T:CPDL   —   Creative Commons Attribution Non Commercial 3.0
T:CPDL   —   Creative Commons Attribution Non Commercial 3.0
T:CPDL   —   Creative Commons Attribution Non Commercial 3.0
T:CPDL   —   Creative Commons Attribution Non Commercial 3.0
T:CPDL   —   Creative Commons Attribution Non Commercial 3.0
C:Christian David Friedrich Palmer
Z:CPDL   —   Creative Commons Attribution Non Commercial 3.0
%%score [ ( 1 2 ) ( 3 4 ) ( 5 6 ) ]
L:1/8
Q:1/4=90
M:2/4
K:F
V:1 treble nm="Sopran\nAlt"
V:2 treble 
V:3 treble-8 nm="Tenor"
V:4 treble-8 
V:5 bass nm="Bass"
V:6 bass 
V:1
"^Lebhaft""^Männerchor" z4 | z4 | z4 | z4 | z4 | z4 | z4 | z4 |[Q:1/4=90]"^a tempo" z4 | z4 | z4 | %11
w: |||||||||||
 z4 | z4 | z4 | z4 | z4 | z4 ||"^Sopr.\nAlt"!f!"^Gemischter Chor" F2 C>F | A4 | A2 F>A | c4 | %21
w: ||||||Ma- che dich|auf,|ma- che dich|auf|
 z!<(! c c!<)!c | f4- | f4- | !fermata!f4 |[Q:1/4=90]"^a tempo"!f! f2 f>f | d4 | =B2 B>B | c4 | %29
w: und wer- de|Licht,|_||Ma- che dich|auf,|ma- che dich|auf,|
 c2!<(! d>e!<)! | f3 d | c4 | =B4 |[M:4/4]!>(! !fermata!c4!>)! |: %34
w: ma- che dich|auf, und|wer-|de|Licht!|
"^Soli; Wiederholung Chor"!p![Q:1/4=88]"^Etwas ruhiger" c2 c2 | c4 A2!mf! cf | e3 c _B2 G2 | %37
w: Denn dein|Licht kommt, und die|Herr- lich- keit des|
 A2 GA | cBBA |!>(! (A4!>)! !breath!G2)"^cresc." AB | c2 A2 B2 c2 |!f! d3 e f2 g2 | !^!c2 cf fede | %43
w: Herrn ge- het|auf _ ü- ber|dir, _ denn dein|Licht kommt, und die|Herr- lich- keit des|Herrn ge- het auf _ ü- ber|
 f4 :| z2!pp!"^Chor" F2 | F4 F4 | G3 F F2 F2 | E4 FE DE | .G2 .F2 z2!pp! F2 | F4 F4 | G4 F4 | %51
w: dir!|Denn|sie- he,|Fins- ter- nis be-|de- cket * das *|Erd- reich, und|tie- fes|Dun- kel|
 E4 ^G3 G | .=B2 !breath!.!fermata!A2 |"^Soli"!p! z4 | z4 e2 dc | cf ed dc AF | E2 z2 e2 dc | %57
w: liegt auf den|Völ- kern;||doch ü- ber|dir _ geht _ auf _ der _|Herr, und sei- ne|
 cf!<(! ed!<)! dc AF |!f! d3 d _ed ef | d4 z2!mf! d2 | B3 B cB cd | B4 z2!mf! BB | B3 G G2 z e | %63
w: Herr- * lich- * keit _ er- *|schei- net ü- * ber _|dir, er-|schei- net ü- * ber *|dir, sei- ne|Herr- lich- keit er-|
!<(! (e3 c)!<)! c2 z2 |!f! (g2 e2) (c2 B2) | G4 |!f!"^Chor" A2 B2 | c4 A2 cf | (e3 c) B2 G2 | %69
w: schei- * net|ü- * ber _|dir,|und die|Hei- den, sie _|wer- * den in|
 A2 GA cB BA | A4 G2 |"^cresc." AB | c2 A2 B2!f! c2 | d3 e f2 g2 | c2 A2!>(! G4!>)! | F2 z2 z4 | %76
w: dei- nem _ Lich- * te _|wan- deln,|und die|Kö- ni- ge im|Glanz, der ü- ber|dir er- schei-|net.|
!f![Q:1/4=100]"^Beschleunigt" !>!F4 C3 F | !^!A4 z4 |!f! !>!A4 F3 A | !>!c4 z4 |!ff! c4 f3 f | %81
w: Ma- che dich|auf,|ma- che dich|auf,|ma- che dich|
 !^!d4 g4 | f8 | e8 | f6 z2 | z8 | z8 | z8 |!ff![Q:1/4=76]"^rit." c6 c2 |!>(! !fermata!A8!>)! |] %90
w: auf und|wer-|de|Licht,||||wer- de|Licht!|
V:2
 x4 | x4 | x4 | x4 | x4 | x4 | x4 | x4 | x4 | x4 | x4 | x4 | x4 | x4 | x4 | x4 | x4 || F2 C>F | %18
w: ||||||||||||||||||
 A4 | A2 F>A | c4 | x c cc | A3 A | B2 B2 | A4 | A2 A>A | G4 | G2 G>G | G4 | C2 D>E | F3 A | G4 | %32
w: ||||Licht, und|wer- de|Licht!||||||||
 (G2 F2) |[M:4/4] E4 |: E2 E2 | F4 F2 FF | G3 G G2 E2 | F2 EF | G2 GF | (F4 E2) FG | A2 F2 G2 A2 | %41
w: |||||||||
 B3 B B2 B2 | A2 AA G2 GG | F4 :| x2 F2 | D4 D4 | D3 D D2 D2 | ^C4 DC =B,C | E2 D2 x2 D2 | D4 D4 | %50
w: |||||||||
 D4 D4 | =C4 D3 D | D2 C2 | c2 cc | (c4 B2) BB | A2 B2 A2 FA | (c4 B2) B2 | A2 B2 A2 F2 | %58
w: |||doch ü- ber|dir _ ge- het|auf der Herr, und _|sei- * ne||
 F3 F F2 F2 | F4 x2 D2 | D3 D D2 D2 | D4 x2 EF | G3 E E2 x G | G4 G2 x2 | G4 G4 | E4 | F2 G2 | %67
w: |||||||||
 A4 F2 A2 | G4 G2 E2 | F2 EF G2 GF | F4 E2 | FG | A2 F2 G2 A2 | B3 B B2 B2 | A2 F2 (F2 E2) | %75
w: ||||||||
 F2 x2 x4 | C4 C3 C | F4 x4 | F4 C3 F | A4 x4 | F4 F3 F | F4 B4 | A8 | G8 | A6 x2 | x8 | x8 | x8 | %88
w: |||||||||||||
 E6 E2 | F8 |] %90
w: ||
V:3
!f! F2 C>F | A4 | A2 F>A | c4 | z!<(! c cc!<)! | f4- | f4- | !fermata!f4 |!f! f2 f>f | d4 | %10
w: Ma- che dich|auf,|ma- che dich|auf,|und wer- de|Licht!|_||Ma- che dich|auf,|
 d2 d>d | c4 |!f!!<(! c2 d>!<)!e | f3 d | e4 |!>(! d4!>)! | !fermata!c4 ||!f!"^Ten." F2 C>F | A4 | %19
w: ma- che dich|auf,|ma- che dich|auf, und|wer-|de|Licht!|Ma- che dich|auf,|
 A2 F>A | c4 | z!<(! c c!<)!c | c3 c | d2 fd | !fermata!c4 |!f! d2 d>d | =B4 | d2 d>d | c4 | %29
w: ma- che dich|auf|und wer- de|Licht, und|wer- de _|Licht,|Ma- che dich|auf,|ma- che dich|auf,|
 c2!<(! d>e!<)! | f3 f | e4 | d4 |[M:4/4]!>(! !fermata!c4!>)! |:!p! c2 c2 | c4 c2!mf! AA | %36
w: ma- che dich|auf, und|wer-|de|Licht!|Denn dein|Licht kommt, und die|
 c3 e c2 c2 | c2 cc | c2 cc |!>(! !breath!c6!>)!"^cresc." cc | c2 f2 e2 _e2 |!f! d3 =c d2 d2 | %42
w: Herr- lich- keit des|Herrn ge- het|auf ü- ber|dir, denn dein|Licht kommt, und die|Herr- lich- keit des|
 !^!f2 fc c2 BB | A4 :| z2!pp! A2 | A4 A4 | B3 A A2 A2 | A4 A2 A2 | .A2 .A2 z2!pp! A2 | A4 A4 | %50
w: Herrn ge- het auf ü- ber|dir!|Denn|sie- he,|Fins- ter- nis be-|de- cket das|Erd- reich, und|tie- fes|
 B4 A4 | A4 =B3 B | .^G2 !breath!.!fermata!A2 | z4 |!p! _B2 BA G2 c2 | c2 de f4 | B2 BA G2 c2 | %57
w: Dun- kel|liegt auf den|Völ- kern;||doch ü- ber dir geht|auf der _ Herr,|und sei- ne Herr- lich-|
 c2!<(! de!<)! f2 cA |!f! B3 B A2 A2 | B4 z2!mf! BA | G3 G ^F2 F2 | G4 z2!mf! GF | E3 G c2 z c | %63
w: keit er- * scheint, er- *|schei- net ü- ber|dir, er- *|schei- net ü- ber|dir, sei- ne|Herr- lich- keit er-|
!<(! (c3 e)!<)! e2 z2 |!f! e4 e4 | c4 |!f! c2 c2 | c4 c2 c2 | (c3 e) c2 c2 | c2 c2 c2 c2 | c4 c2 | %71
w: schei- * net|ü- ber|dir,|und die|Hei- den, sie|wer- * den in|dei- nem Lich- te|wan- deln,|
"^cresc." cc | c2 f2 e2!f! _e2 | d3 ^c d2 d2 | =c2 c2!>(! (c3 B)!>)! | A2 z2 z4 |!f! !>!A4 A3 A | %77
w: und die|Kö- ni- ge im|Glanz, der ü- ber|dir er- schei- *|net.|Ma- che dich|
 !^!c4 z4 |!f! !>!c4 A3 c | !>!f4 z4 |!ff! A4 c3 c | !^!B4 d4 | c8 | c8 | c6 z2 | c4 c3 c | A6 F2 | %87
w: auf,|ma- che dich|auf,|ma- che dich|auf und|wer-|de|Licht,|ma- che dich|auf und|
 C8 | (G4 c4) |!>(! !fermata!c8!>)! |] %90
w: wer-|de _|Licht!|
V:4
 F2 C>F | A4 | A2 F>A | c4 | x c cc | !^!c3 c | d2 d2 | c4 | d2 d>d | =B4 | =B2 B>B | c4 | %12
w: |||||Licht, und|wer- de|Licht!|||||
 c2 =B>_B | A3 d | c4 | =B4 | G4 || x4 | x4 | x4 | x4 | x4 | x4 | x4 | x4 | x4 | x4 | x4 | x4 | %29
w: |||||||||||||||||
 x4 | x4 | x4 | x4 |[M:4/4] x4 |: x4 | x8 | x8 | x4 | x4 | x8 | x8 | x8 | x8 | x4 :| x4 | x8 | x8 | %47
w: ||||||||||||||||||
 x8 | x8 | x8 | x8 | x8 | x4 | x4 | x8 | x8 | x8 | x8 | x8 | x8 | x8 | x8 | x8 | x8 | x8 | x4 | %66
w: |||||||||||||||||||
 x4 | x8 | x8 | x8 | x6 | x2 | x8 | x8 | x8 | x8 | x8 | x8 | x8 | x8 | x8 | x8 | x8 | x8 | x8 | %85
w: |||||||||||||||||||
 x8 | x8 | x8 | x8 | x8 |] %90
w: |||||
V:5
!f! F,2 C,>F, | A,4 | A,2 F,>A, | C4 | z!<(! C CC!<)! | !^!A,3 A, | B,2 B,2 | !fermata!A,4 | %8
w: ||||||||
!f! A,2 A,>A, | G,4 | G,2 G,>G, | G,4 |!f!!<(! E,2 F,>!<)!G, | F,3 A, | G,4 |!>(! (G,2 F,2)!>)! | %16
w: ||||||||
 !fermata!E,4 ||!f!"^Bass" F,2 C,>F, | A,4 | A,2 F,>A, | C4 | z!<(! C C!<)!C | F,4 | B,F, D,B,, | %24
w: ||||||||
 !fermata!F,4 |!f! D,2 D,>D, | G,4 | F,2 F,>F, | E,4 | C,2!<(! D,>E,!<)! | F,3 F, | G,4 | G,4 | %33
w: |||||||||
[M:4/4]!>(! !fermata!C,4!>)! |:!p! C2 B,2 | A,4 F,2!mf! F,F, | C,3 C, E,2 G,2 | F,2 G,F, | %38
w: |||||
 E,2 F,A, |!>(! C4-!>)! C!breath!B,"^cresc."A,G, | F,2 F,2 F,2 F,2 |!f! B,,3 B,, B,2 B,2 | %42
w: ||||
 !^!C2 A,F, C,2 C,C, | F,4 :| z2!pp! D,2 | D,4 D,4 | D,3 D, D,2 D,2 | A,,4 A,,2 A,,2 | %48
w: ||||||
 .D,2 .D,2 z2!pp! D,2 | D,4 D,4 | D,4 D,4 | E,4 E,3 E, | .E,2 !breath!.!fermata!A,,2 | z4 | %54
w: ||||||
!p! =G,2 G,F, C,2 C,2 | F,2 F,2 F,4 | G,2 G,F, C,2 C,2 | F,2!<(! F,2!<)! F,2 F,2 | B,,4 z2!f! F,2 | %59
w: |||* * * er-|scheint, er-|
 B,,2 D,F, B,A, G,F, | G,2 z2 z2!mf! D,2 | G,,2 B,,D, G,=F, E,D, | C,3 C, C,2 z C, | %63
w: schei- net _ ü- * ber _|dir, er-|schei- net, _ sei- * ne _|Herr- lich- keit *|
!<(! C,4!<)! C,2 z2 |!f! C4 C4 | (C2 B,2) |!f! A,2 G,2 | F,4 A,2 F,2 | C,4 E,2 G,2 | %69
w: ||||||
 F,2 F,2 E,2 F,A, | C4 CB, |"^cresc." A,G, | F,2 F,2 F,2!f! F,2 | B,,3 B,, B,2 B,2 | %74
w: |||||
 =C2 C2!>(! C,4!>)! | F,2!f! [C,C]2 [D,=B,]2 [E,_B,]2 |!f! [F,A,]6 z2 | %77
w: |* D'rum mach dich|auf,|
 z2 [C,C]2 [D,=B,]2 [E,_B,]2 | [F,A,]6 z2 | z2 [C,C]2 [D,=B,]2 [E,_B,]2 | [F,A,]4 A,3 A, | %81
w: und wer- de|Licht,|ja, mach dich|auf, mach dich|
 !^!B,4 B,,4 | C,8 | C,8 | F,6 z2 | C4 C3 C | A,6 F,2 | C,8 | C,8 |!>(! !fermata!F,8!>)! |] %90
w: |||||||||
V:6
 F,2 C,>F, | A,4 | A,2 F,>A, | C4 | x C CC | F,3 F, | B,F, D,B,, | F,4 | D,2 D,>D, | G,4 | %10
 F,2 F,>F, | E,4 | C,2 C,>C, | D,3 F, | G,4 | G,,4 | C,4 || x4 | x4 | x4 | x4 | x4 | x4 | x4 | x4 | %25
 x4 | x4 | x4 | x4 | x4 | x4 | x4 | x4 |[M:4/4] x4 |: x4 | x8 | x8 | x4 | x4 | x8 | x8 | x8 | x8 | %43
 x4 :| x4 | x8 | x8 | x8 | x8 | x8 | x8 | x8 | x4 | x4 | x8 | x8 | x8 | x8 | x8 | x8 | x8 | x8 | %62
 x8 | x8 | x8 | x4 | x4 | x8 | x8 | x8 | x6 | x2 | x8 | x8 | x8 | x8 | x8 | x8 | x8 | x8 | x8 | %81
 x8 | x8 | x8 | x8 | x8 | x8 | x8 | x8 | x8 |] %90

